X:611
T:Hamish's Tune
C:Joe Buchanan's Scottish Tome - Page 178.2
I:178 2
C:Hamish Mendes
Z:Carl Allison
R:Reel
L:1/8
M:4/4
K:A
E | EA Ac | ce e2 | ed/e/ f>e | ed d2 |
EG f2 | Be e2 | g>f g>f | fe fe |
E2 Ac | ce e2 | e2 a>g | gf f=g |
^gf gf | fe fe | e>d cB | A2 A |]
E/E/ | EA cA | EA cA | c2 d>c | cB B>G |
EG BG | EG BG | g>f g>f | fe fe |
EA cA | EA cA | e2 a>g | gf f2 |
gf gf | fe fe | e>d cB | A2- A |]
